Newaita-dark/apps/22/nautilus.svg

<?xml version="1.0" encoding="UTF-8"?>
<svg xmlns="http://www.w3.org/2000/svg" xmlns:xlink="http://www.w3.org/1999/xlink" width="22pt" height="22pt" viewBox="0 0 22 22" version="1.1">
<defs>
<linearGradient id="linear0" gradientUnits="userSpaceOnUse" x1="254" y1="233.5" x2="254" y2="254.666672" gradientTransform="matrix(0.0429729,0,0,0.0429729,-0.00000262285,9.239165)">
<stop offset="0" style="stop-color:rgb(0%,0%,0%);stop-opacity:0.27451;"/>
<stop offset="1" style="stop-color:rgb(0%,0%,0%);stop-opacity:0;"/>
</linearGradient>
<radialGradient id="radial0" gradientUnits="userSpaceOnUse" cx="450.908936" cy="189.579361" fx="450.908936" fy="189.579361" r="21.166656" gradientTransform="matrix(0.000000119742,-0.0537161,-0.0966889,-0.0000000698078,35.385025,43.721791)">
<stop offset="0" style="stop-color:rgb(0%,0%,0%);stop-opacity:0.313725;"/>
<stop offset="0.222222" style="stop-color:rgb(0%,0%,0%);stop-opacity:0.27451;"/>
<stop offset="1" style="stop-color:rgb(0%,0%,0%);stop-opacity:0;"/>
</radialGradient>
<radialGradient id="radial1" gradientUnits="userSpaceOnUse" cx="450.908936" cy="189.579361" fx="450.908936" fy="189.579361" r="21.166656" gradientTransform="matrix(-0.000000119742,0.0537161,0.0966889,0.0000000698078,-13.554817,-5.175142)">
<stop offset="0" style="stop-color:rgb(0%,0%,0%);stop-opacity:0.313725;"/>
<stop offset="0.222222" style="stop-color:rgb(0%,0%,0%);stop-opacity:0.27451;"/>
<stop offset="1" style="stop-color:rgb(0%,0%,0%);stop-opacity:0;"/>
</radialGradient>
<radialGradient id="radial2" gradientUnits="userSpaceOnUse" cx="450.908936" cy="189.579361" fx="450.908936" fy="189.579361" r="21.166656" gradientTransform="matrix(-0.000000119742,-0.0537161,0.0966889,-0.0000000698078,-13.554817,43.721791)">
<stop offset="0" style="stop-color:rgb(0%,0%,0%);stop-opacity:0.313725;"/>
<stop offset="0.222222" style="stop-color:rgb(0%,0%,0%);stop-opacity:0.27451;"/>
<stop offset="1" style="stop-color:rgb(0%,0%,0%);stop-opacity:0;"/>
</radialGradient>
<radialGradient id="radial3" gradientUnits="userSpaceOnUse" cx="450.908936" cy="189.579361" fx="450.908936" fy="189.579361" r="21.166656" gradientTransform="matrix(0.000000119742,0.0537161,-0.0966889,0.0000000698078,35.385024,-5.175142)">
<stop offset="0" style="stop-color:rgb(0%,0%,0%);stop-opacity:0.313725;"/>
<stop offset="0.222222" style="stop-color:rgb(0%,0%,0%);stop-opacity:0.27451;"/>
<stop offset="1" style="stop-color:rgb(0%,0%,0%);stop-opacity:0;"/>
</radialGradient>
<linearGradient id="linear1" gradientUnits="userSpaceOnUse" x1="243.416672" y1="-168.666656" x2="243.416672" y2="233.5" gradientTransform="matrix(0.0429729,0,0,0.0429729,0,9.239163)">
<stop offset="0" style="stop-color:rgb(37.647059%,49.019608%,54.509804%);stop-opacity:1;"/>
<stop offset="1" style="stop-color:rgb(32.941176%,43.137255%,47.843137%);stop-opacity:1;"/>
</linearGradient>
<linearGradient id="linear2" gradientUnits="userSpaceOnUse" x1="179.916672" y1="-136.916672" x2="179.916672" y2="64.166664" gradientTransform="matrix(0.0429729,0,0,0.0429729,0,9.239163)">
<stop offset="0" style="stop-color:rgb(56.470588%,64.313725%,68.235294%);stop-opacity:1;"/>
<stop offset="1" style="stop-color:rgb(47.058824%,56.470588%,61.176471%);stop-opacity:1;"/>
</linearGradient>
<linearGradient id="linear3" gradientUnits="userSpaceOnUse" x1="169.333328" y1="-168.666702" x2="169.333328" y2="11.24997" gradientTransform="matrix(0.0429729,0,0,0.0429729,0,17.425493)">
<stop offset="0" style="stop-color:rgb(56.470588%,64.313725%,68.235294%);stop-opacity:1;"/>
<stop offset="1" style="stop-color:rgb(47.058824%,56.470588%,61.176471%);stop-opacity:1;"/>
</linearGradient>
<linearGradient id="linear4" gradientUnits="userSpaceOnUse" x1="254" y1="0.666663" x2="254" y2="-31.08334" gradientTransform="matrix(0.0429729,0,0,0.0429729,0,11.513144)">
<stop offset="0" style="stop-color:rgb(74.117647%,74.117647%,74.117647%);stop-opacity:1;"/>
<stop offset="1" style="stop-color:rgb(87.843137%,87.843137%,87.843137%);stop-opacity:1;"/>
</linearGradient>
<linearGradient id="linear5" gradientUnits="userSpaceOnUse" x1="254" y1="0.666663" x2="254" y2="-31.08334" gradientTransform="matrix(0.0429729,0,0,0.0429729,0,4.691203)">
<stop offset="0" style="stop-color:rgb(74.117647%,74.117647%,74.117647%);stop-opacity:1;"/>
<stop offset="1" style="stop-color:rgb(87.843137%,87.843137%,87.843137%);stop-opacity:1;"/>
</linearGradient>
</defs>
<g id="surface1">
<path style=" stroke:none;fill-rule:nonzero;fill:url(#linear0);" d="M 4.546875 19.273438 L 17.28125 19.273438 L 17.28125 20.183594 L 4.546875 20.183594 Z M 4.546875 19.273438 "/>
<path style=" stroke:none;fill-rule:nonzero;fill:url(#radial0);" d="M 17.28125 19.273438 L 19.101562 19.273438 L 19.101562 18.363281 L 17.28125 18.363281 Z M 17.28125 19.273438 "/>
<path style=" stroke:none;fill-rule:nonzero;fill:url(#radial1);" d="M 4.546875 19.273438 L 2.730469 19.273438 L 2.730469 20.183594 L 4.546875 20.183594 Z M 4.546875 19.273438 "/>
<path style=" stroke:none;fill-rule:nonzero;fill:url(#radial2);" d="M 4.546875 19.273438 L 2.730469 19.273438 L 2.730469 18.363281 L 4.546875 18.363281 Z M 4.546875 19.273438 "/>
<path style=" stroke:none;fill-rule:nonzero;fill:url(#radial3);" d="M 17.28125 19.273438 L 19.101562 19.273438 L 19.101562 20.183594 L 17.28125 20.183594 Z M 17.28125 19.273438 "/>
<path style=" stroke:none;fill-rule:nonzero;fill:url(#linear1);" d="M 3.636719 1.992188 L 18.191406 1.992188 C 18.695312 1.992188 19.101562 2.398438 19.101562 2.902344 L 19.101562 18.363281 C 19.101562 18.867188 18.695312 19.273438 18.191406 19.273438 L 3.636719 19.273438 C 3.136719 19.273438 2.730469 18.867188 2.730469 18.363281 L 2.730469 2.902344 C 2.730469 2.398438 3.136719 1.992188 3.636719 1.992188 Z M 3.636719 1.992188 "/>
<path style=" stroke:none;fill-rule:nonzero;fill:rgb(90.196079%,90.196079%,90.196079%);fill-opacity:0.588235;" d="M 3.636719 1.992188 C 3.132812 1.992188 2.730469 2.398438 2.730469 2.902344 L 2.730469 3.015625 C 2.730469 2.511719 3.132812 2.105469 3.636719 2.105469 L 18.191406 2.105469 C 18.695312 2.105469 19.101562 2.511719 19.101562 3.015625 L 19.101562 2.902344 C 19.101562 2.398438 18.695312 1.992188 18.191406 1.992188 Z M 3.636719 1.992188 "/>
<path style=" stroke:none;fill-rule:nonzero;fill:url(#linear2);" d="M 4.546875 3.355469 L 17.28125 3.355469 C 17.535156 3.355469 17.738281 3.558594 17.738281 3.808594 L 17.738281 8.8125 C 17.738281 9.0625 17.535156 9.269531 17.28125 9.269531 L 4.546875 9.269531 C 4.296875 9.269531 4.09375 9.0625 4.09375 8.8125 L 4.09375 3.808594 C 4.09375 3.558594 4.296875 3.355469 4.546875 3.355469 Z M 4.546875 3.355469 "/>
<path style=" stroke:none;fill-rule:nonzero;fill:url(#linear3);" d="M 4.546875 10.175781 L 17.28125 10.175781 C 17.535156 10.175781 17.738281 10.382812 17.738281 10.632812 L 17.738281 17.453125 C 17.738281 17.707031 17.535156 17.910156 17.28125 17.910156 L 4.546875 17.910156 C 4.296875 17.910156 4.09375 17.707031 4.09375 17.453125 L 4.09375 10.632812 C 4.09375 10.382812 4.296875 10.175781 4.546875 10.175781 Z M 4.546875 10.175781 "/>
<path style=" stroke:none;fill-rule:nonzero;fill:rgb(100%,100%,100%);fill-opacity:0.392157;" d="M 4.546875 3.355469 C 4.296875 3.355469 4.09375 3.558594 4.09375 3.808594 L 4.09375 4.039062 C 4.09375 3.785156 4.296875 3.582031 4.546875 3.582031 L 17.28125 3.582031 C 17.535156 3.582031 17.738281 3.785156 17.738281 4.039062 L 17.738281 3.808594 C 17.738281 3.558594 17.535156 3.355469 17.28125 3.355469 Z M 4.546875 3.355469 "/>
<path style=" stroke:none;fill-rule:nonzero;fill:rgb(0%,0%,0%);fill-opacity:0.235294;" d="M 4.546875 9.550781 C 4.296875 9.550781 4.09375 9.347656 4.09375 9.097656 L 4.09375 8.871094 C 4.09375 9.121094 4.296875 9.324219 4.546875 9.324219 L 17.28125 9.324219 C 17.535156 9.324219 17.738281 9.121094 17.738281 8.871094 L 17.738281 9.097656 C 17.738281 9.347656 17.535156 9.550781 17.28125 9.550781 Z M 4.546875 9.550781 "/>
<path style="fill:none;stroke-width:3;stroke-linecap:round;stroke-linejoin:miter;stroke:rgb(12.941177%,12.941177%,12.941177%);stroke-opacity:1;stroke-miterlimit:4;" d="M 105.808078 -136.916548 L 402.143415 -136.916548 C 408.051942 -136.916548 412.778763 -132.189726 412.778763 -126.3721 L 412.778763 -9.928674 C 412.778763 -4.111048 408.051942 0.706674 402.143415 0.706674 L 105.808078 0.706674 C 99.990451 0.706674 95.26363 -4.111048 95.26363 -9.928674 L 95.26363 -126.3721 C 95.26363 -132.189726 99.990451 -136.916548 105.808078 -136.916548 Z M 105.808078 -136.916548 " transform="matrix(0.0429729,0,0,0.0429729,0,9.239163)"/>
<path style=" stroke:none;fill-rule:nonzero;fill:rgb(100%,100%,100%);fill-opacity:0.392157;" d="M 4.546875 10.175781 C 4.296875 10.175781 4.09375 10.378906 4.09375 10.632812 L 4.09375 10.859375 C 4.09375 10.609375 4.296875 10.40625 4.546875 10.40625 L 17.28125 10.40625 C 17.535156 10.40625 17.738281 10.609375 17.738281 10.859375 L 17.738281 10.632812 C 17.738281 10.378906 17.535156 10.175781 17.28125 10.175781 Z M 4.546875 10.175781 "/>
<path style=" stroke:none;fill-rule:nonzero;fill:rgb(0%,0%,0%);fill-opacity:0.235294;" d="M 4.546875 18.191406 C 4.296875 18.191406 4.09375 17.992188 4.09375 17.738281 L 4.09375 17.511719 C 4.09375 17.761719 4.296875 17.964844 4.546875 17.964844 L 17.28125 17.964844 C 17.535156 17.964844 17.738281 17.761719 17.738281 17.511719 L 17.738281 17.738281 C 17.738281 17.992188 17.535156 18.191406 17.28125 18.191406 Z M 4.546875 18.191406 "/>
<path style="fill:none;stroke-width:3;stroke-linecap:round;stroke-linejoin:miter;stroke:rgb(12.941177%,12.941177%,12.941177%);stroke-opacity:1;stroke-miterlimit:4;" d="M 105.808078 21.795569 L 402.143415 21.795569 C 408.051942 21.795569 412.778763 26.613291 412.778763 32.430917 L 412.778763 191.143033 C 412.778763 197.05156 408.051942 201.778381 402.143415 201.778381 L 105.808078 201.778381 C 99.990451 201.778381 95.26363 197.05156 95.26363 191.143033 L 95.26363 32.430917 C 95.26363 26.613291 99.990451 21.795569 105.808078 21.795569 Z M 105.808078 21.795569 " transform="matrix(0.0429729,0,0,0.0429729,0,9.239163)"/>
<path style=" stroke:none;fill-rule:nonzero;fill:rgb(100%,100%,100%);fill-opacity:0.392157;" d="M 3.636719 1.992188 C 3.132812 1.992188 2.730469 2.398438 2.730469 2.902344 L 2.730469 3.242188 C 2.730469 2.738281 3.132812 2.332031 3.636719 2.332031 L 18.191406 2.332031 C 18.695312 2.332031 19.101562 2.738281 19.101562 3.242188 L 19.101562 2.902344 C 19.101562 2.398438 18.695312 1.992188 18.191406 1.992188 Z M 3.636719 1.992188 "/>
<path style=" stroke:none;fill-rule:nonzero;fill:rgb(0%,0%,0%);fill-opacity:0.235294;" d="M 3.636719 19.273438 C 3.132812 19.273438 2.730469 18.867188 2.730469 18.363281 L 2.730469 18.023438 C 2.730469 18.527344 3.132812 18.933594 3.636719 18.933594 L 18.191406 18.933594 C 18.695312 18.933594 19.101562 18.527344 19.101562 18.023438 L 19.101562 18.363281 C 19.101562 18.867188 18.695312 19.273438 18.191406 19.273438 Z M 3.636719 19.273438 "/>
<path style=" stroke:none;fill-rule:nonzero;fill:rgb(12.941177%,12.941177%,12.941177%);fill-opacity:1;" d="M 3.636719 1.925781 C 3.101562 1.925781 2.664062 2.363281 2.664062 2.902344 L 2.664062 18.363281 C 2.664062 18.902344 3.101562 19.335938 3.636719 19.335938 L 18.191406 19.335938 C 18.730469 19.335938 19.164062 18.902344 19.164062 18.363281 L 19.164062 2.902344 C 19.164062 2.363281 18.730469 1.925781 18.191406 1.925781 Z M 3.636719 2.054688 L 18.191406 2.054688 C 18.660156 2.054688 19.035156 2.429688 19.035156 2.902344 L 19.035156 18.363281 C 19.035156 18.832031 18.660156 19.207031 18.191406 19.207031 L 3.636719 19.207031 C 3.167969 19.207031 2.792969 18.832031 2.792969 18.363281 L 2.792969 2.902344 C 2.792969 2.429688 3.167969 2.054688 3.636719 2.054688 Z M 3.636719 2.054688 "/>
<path style=" stroke:none;fill-rule:nonzero;fill:url(#linear4);" d="M 9.324219 10.175781 L 9.324219 11.085938 C 9.324219 11.339844 9.527344 11.542969 9.777344 11.542969 L 12.050781 11.542969 C 12.304688 11.542969 12.507812 11.339844 12.507812 11.085938 L 12.507812 10.175781 Z M 9.324219 10.175781 "/>
<path style=" stroke:none;fill-rule:nonzero;fill:rgb(0%,0%,0%);fill-opacity:0.235294;" d="M 9.324219 11.085938 L 9.324219 11.3125 C 9.324219 11.566406 9.527344 11.769531 9.777344 11.769531 L 12.050781 11.769531 C 12.304688 11.769531 12.507812 11.566406 12.507812 11.3125 L 12.507812 11.085938 C 12.507812 11.339844 12.304688 11.542969 12.050781 11.542969 L 9.777344 11.542969 C 9.527344 11.542969 9.324219 11.339844 9.324219 11.085938 Z M 9.324219 11.085938 "/>
<path style=" stroke:none;fill-rule:nonzero;fill:rgb(100%,100%,100%);fill-opacity:0.784314;" d="M 9.324219 10.175781 L 9.324219 10.40625 L 12.507812 10.40625 L 12.507812 10.175781 Z M 9.324219 10.175781 "/>
<path style=" stroke:none;fill-rule:nonzero;fill:rgb(12.941177%,12.941177%,12.941177%);fill-opacity:1;" d="M 9.257812 10.113281 L 9.257812 11.085938 C 9.257812 11.375 9.492188 11.605469 9.777344 11.605469 L 12.050781 11.605469 C 12.339844 11.605469 12.570312 11.375 12.570312 11.085938 L 12.570312 10.113281 Z M 9.386719 10.242188 L 12.441406 10.242188 L 12.441406 11.085938 C 12.441406 11.304688 12.269531 11.476562 12.050781 11.476562 L 9.777344 11.476562 C 9.5625 11.476562 9.386719 11.304688 9.386719 11.085938 Z M 9.386719 10.242188 "/>
<path style=" stroke:none;fill-rule:nonzero;fill:url(#linear5);" d="M 9.324219 3.355469 L 9.324219 4.265625 C 9.324219 4.515625 9.527344 4.71875 9.777344 4.71875 L 12.050781 4.71875 C 12.304688 4.71875 12.507812 4.515625 12.507812 4.265625 L 12.507812 3.355469 Z M 9.324219 3.355469 "/>
<path style=" stroke:none;fill-rule:nonzero;fill:rgb(0%,0%,0%);fill-opacity:0.235294;" d="M 9.324219 4.265625 L 9.324219 4.492188 C 9.324219 4.746094 9.527344 4.945312 9.777344 4.945312 L 12.050781 4.945312 C 12.304688 4.945312 12.507812 4.746094 12.507812 4.492188 L 12.507812 4.265625 C 12.507812 4.515625 12.304688 4.71875 12.050781 4.71875 L 9.777344 4.71875 C 9.527344 4.71875 9.324219 4.515625 9.324219 4.265625 Z M 9.324219 4.265625 "/>
<path style=" stroke:none;fill-rule:nonzero;fill:rgb(100%,100%,100%);fill-opacity:0.784314;" d="M 9.324219 3.355469 L 9.324219 3.582031 L 12.507812 3.582031 L 12.507812 3.355469 Z M 9.324219 3.355469 "/>
<path style=" stroke:none;fill-rule:nonzero;fill:rgb(12.941177%,12.941177%,12.941177%);fill-opacity:1;" d="M 9.257812 3.292969 L 9.257812 4.265625 C 9.257812 4.550781 9.492188 4.785156 9.777344 4.785156 L 12.050781 4.785156 C 12.339844 4.785156 12.570312 4.550781 12.570312 4.265625 L 12.570312 3.292969 Z M 9.386719 3.421875 L 12.441406 3.421875 L 12.441406 4.265625 C 12.441406 4.480469 12.269531 4.65625 12.050781 4.65625 L 9.777344 4.65625 C 9.5625 4.65625 9.386719 4.480469 9.386719 4.265625 Z M 9.386719 3.421875 "/>
</g>
</svg>

<svg xmlns="http://www.w3.org/2000/svg" width="22pt" height="22pt" viewBox="0 0 22 22"><defs><linearGradient id="a" gradientUnits="userSpaceOnUse" x1="254" y1="233.5" x2="254" y2="254.667" gradientTransform="matrix(.04297 0 0 .04297 0 9.24)"><stop offset="0" stop-opacity=".275"/><stop offset="1" stop-opacity="0"/></linearGradient><radialGradient id="b" gradientUnits="userSpaceOnUse" cx="450.909" cy="189.579" fx="450.909" fy="189.579" r="21.167" gradientTransform="matrix(0 -.05372 -.09669 0 35.385 43.722)"><stop offset="0" stop-opacity=".314"/><stop offset=".222" stop-opacity=".275"/><stop offset="1" stop-opacity="0"/></radialGradient><radialGradient id="c" gradientUnits="userSpaceOnUse" cx="450.909" cy="189.579" fx="450.909" fy="189.579" r="21.167" gradientTransform="matrix(0 .05372 .09669 0 -13.555 -5.175)"><stop offset="0" stop-opacity=".314"/><stop offset=".222" stop-opacity=".275"/><stop offset="1" stop-opacity="0"/></radialGradient><radialGradient id="d" gradientUnits="userSpaceOnUse" cx="450.909" cy="189.579" fx="450.909" fy="189.579" r="21.167" gradientTransform="matrix(0 -.05372 .09669 0 -13.555 43.722)"><stop offset="0" stop-opacity=".314"/><stop offset=".222" stop-opacity=".275"/><stop offset="1" stop-opacity="0"/></radialGradient><radialGradient id="e" gradientUnits="userSpaceOnUse" cx="450.909" cy="189.579" fx="450.909" fy="189.579" r="21.167" gradientTransform="matrix(0 .05372 -.09669 0 35.385 -5.175)"><stop offset="0" stop-opacity=".314"/><stop offset=".222" stop-opacity=".275"/><stop offset="1" stop-opacity="0"/></radialGradient><linearGradient id="f" gradientUnits="userSpaceOnUse" x1="243.417" y1="-168.667" x2="243.417" y2="233.5" gradientTransform="matrix(.04297 0 0 .04297 0 9.24)"><stop offset="0" stop-color="#607d8b"/><stop offset="1" stop-color="#546e7a"/></linearGradient><linearGradient id="g" gradientUnits="userSpaceOnUse" x1="179.917" y1="-136.917" x2="179.917" y2="64.167" gradientTransform="matrix(.04297 0 0 .04297 0 9.24)"><stop offset="0" stop-color="#90a4ae"/><stop offset="1" stop-color="#78909c"/></linearGradient><linearGradient id="h" gradientUnits="userSpaceOnUse" x1="169.333" y1="-168.667" x2="169.333" y2="11.25" gradientTransform="matrix(.04297 0 0 .04297 0 17.425)"><stop offset="0" stop-color="#90a4ae"/><stop offset="1" stop-color="#78909c"/></linearGradient><linearGradient id="i" gradientUnits="userSpaceOnUse" x1="254" y1=".667" x2="254" y2="-31.083" gradientTransform="matrix(.04297 0 0 .04297 0 11.513)"><stop offset="0" stop-color="#bdbdbd"/><stop offset="1" stop-color="#e0e0e0"/></linearGradient><linearGradient id="j" gradientUnits="userSpaceOnUse" x1="254" y1=".667" x2="254" y2="-31.083" gradientTransform="matrix(.04297 0 0 .04297 0 4.691)"><stop offset="0" stop-color="#bdbdbd"/><stop offset="1" stop-color="#e0e0e0"/></linearGradient></defs><path d="M4.547 19.273H17.28v.91H4.547zm0 0" fill="url(#a)"/><path d="M17.281 19.273h1.82v-.91h-1.82zm0 0" fill="url(#b)"/><path d="M4.547 19.273H2.73v.91h1.817zm0 0" fill="url(#c)"/><path d="M4.547 19.273H2.73v-.91h1.817zm0 0" fill="url(#d)"/><path d="M17.281 19.273h1.82v.91h-1.82zm0 0" fill="url(#e)"/><path d="M3.637 1.992H18.19c.504 0 .91.406.91.91v15.461c0 .504-.406.91-.91.91H3.637a.908.908 0 0 1-.907-.91V2.903c0-.505.407-.91.907-.91zm0 0" fill="url(#f)"/><path d="M3.637 1.992a.905.905 0 0 0-.907.91v.114c0-.504.403-.91.907-.91H18.19c.504 0 .91.406.91.91v-.114a.909.909 0 0 0-.91-.91zm0 0" fill="#e6e6e6" fill-opacity=".588"/><path d="M4.547 3.355H17.28c.254 0 .457.204.457.454v5.004c0 .25-.203.457-.457.457H4.547a.457.457 0 0 1-.453-.457V3.809c0-.25.203-.454.453-.454zm0 0" fill="url(#g)"/><path d="M4.547 10.176H17.28c.254 0 .457.207.457.457v6.82a.455.455 0 0 1-.457.457H4.547a.454.454 0 0 1-.453-.457v-6.82c0-.25.203-.457.453-.457zm0 0" fill="url(#h)"/><path d="M4.547 3.355a.453.453 0 0 0-.453.454v.23c0-.254.203-.457.453-.457H17.28c.254 0 .457.203.457.457v-.23a.454.454 0 0 0-.457-.454zm0 0" fill="#fff" fill-opacity=".392"/><path d="M4.547 9.55a.453.453 0 0 1-.453-.452V8.87c0 .25.203.453.453.453H17.28a.454.454 0 0 0 .457-.453v.227c0 .25-.203.453-.457.453zm0 0" fill-opacity=".235"/><path d="M4.547 3.355H17.28c.254 0 .457.204.457.454v5.003c0 .25-.203.458-.457.458H4.547a.457.457 0 0 1-.453-.458V3.81c0-.25.203-.454.453-.454zm0 0" fill="none" stroke-width=".12891" stroke-linecap="round" stroke="#212121"/><path d="M4.547 10.176a.454.454 0 0 0-.453.457v.226c0-.25.203-.453.453-.453H17.28c.254 0 .457.203.457.453v-.226a.455.455 0 0 0-.457-.457zm0 0" fill="#fff" fill-opacity=".392"/><path d="M4.547 18.191c-.25 0-.453-.199-.453-.453v-.226c0 .25.203.453.453.453H17.28a.454.454 0 0 0 .457-.453v.226a.452.452 0 0 1-.457.453zm0 0" fill-opacity=".235"/><path d="M4.547 10.176H17.28c.254 0 .457.207.457.457v6.82a.455.455 0 0 1-.457.457H4.547a.454.454 0 0 1-.453-.457v-6.82c0-.25.203-.457.453-.457zm0 0" fill="none" stroke-width=".12891" stroke-linecap="round" stroke="#212121"/><path d="M3.637 1.992a.905.905 0 0 0-.907.91v.34c0-.504.403-.91.907-.91H18.19c.504 0 .91.406.91.91v-.34a.909.909 0 0 0-.91-.91zm0 0" fill="#fff" fill-opacity=".392"/><path d="M3.637 19.273a.905.905 0 0 1-.907-.91v-.34c0 .504.403.91.907.91H18.19c.504 0 .91-.406.91-.91v.34c0 .504-.406.91-.91.91zm0 0" fill-opacity=".235"/><path d="M3.637 1.926a.976.976 0 0 0-.973.976v15.461c0 .54.438.973.973.973H18.19a.97.97 0 0 0 .973-.973V2.903a.974.974 0 0 0-.973-.977zm0 .129H18.19c.47 0 .844.375.844.847v15.461a.84.84 0 0 1-.844.844H3.637a.84.84 0 0 1-.844-.844V2.903c0-.473.375-.848.844-.848zm0 0" fill="#212121"/><path d="M9.324 10.176v.91c0 .254.203.457.453.457h2.274a.455.455 0 0 0 .457-.457v-.91zm0 0" fill="url(#i)"/><path d="M9.324 11.086v.226c0 .254.203.458.453.458h2.274a.455.455 0 0 0 .457-.457v-.227a.455.455 0 0 1-.457.457H9.777a.454.454 0 0 1-.453-.457zm0 0" fill-opacity=".235"/><path d="M9.324 10.176v.23h3.184v-.23zm0 0" fill="#fff" fill-opacity=".784"/><path d="M9.258 10.113v.973c0 .289.234.52.52.52h2.273c.289 0 .52-.231.52-.52v-.973zm.129.13h3.054v.843c0 .219-.171.39-.39.39H9.777a.39.39 0 0 1-.39-.39zm0 0" fill="#212121"/><path d="M9.324 3.355v.91c0 .25.203.454.453.454h2.274a.454.454 0 0 0 .457-.453v-.91zm0 0" fill="url(#j)"/><path d="M9.324 4.266v.226c0 .254.203.453.453.453h2.274c.254 0 .457-.199.457-.453v-.226c0 .25-.203.453-.457.453H9.777a.453.453 0 0 1-.453-.453zm0 0" fill-opacity=".235"/><path d="M9.324 3.355v.227h3.184v-.227zm0 0" fill="#fff" fill-opacity=".784"/><path d="M9.258 3.293v.973c0 .285.234.52.52.52h2.273a.52.52 0 0 0 .52-.52v-.973zm.129.129h3.054v.844a.39.39 0 0 1-.39.39H9.777a.392.392 0 0 1-.39-.39zm0 0" fill="#212121"/></svg>
